X: 10592
T: I'LL KISS THE BONNIE LASS -- Reel
C:
R: reel
B: K\"ohler's Violin Repository, v.1, 1885 p.59 #2
F: http://www.archive.org/details/klersviolinrepos01edin
Z: 2011 John Chambers <jc:trillian.mit.edu>
N: There is a dangling slur on the very last note.
M: C|
L: 1/8
K: Eb
uc |\
BGGF EFGc | BGeG cFFc | BGGF EFGg | gfed e3 :|
ug |\
(eg)ge (df)fd | (eg)ge (fd)Bd | (eg)ge (df)fd | cafd e2(eg) |
egeg dfdf | cece fdBg | agfe dcBA | Ggfd "_D.C."e2 "_Fine."(e |]

%%sep 2 1 500

